X: 5
T: The Ballydesmond
R: polka
M: 2/4
L: 1/8
K: Ador
|: B |cd/c/ Bc/B/ | AB/A/ G>A | Bd ef | ga/g/ ed |
ea g>e | dB G>B | c/d/e dB | A2- A :|
|: B/d/ |ea a>e | dg g/a/g/d/ | ea a>b | g/a/g/f/ gd |
ea g>e | dB F/G/A/B/ | ce d/c/B | A2- A :|


Tune 239	Setting 22692

